src/assets/icons/reports.svg

<?xml version="1.0" encoding="UTF-8"?>
<svg width="16px" height="16px" viewBox="0 0 16 16" version="1.1" xmlns="http://www.w3.org/2000/svg" xmlns:xlink="http://www.w3.org/1999/xlink">
    <!-- Generator: Sketch 41 (35326) - http://www.bohemiancoding.com/sketch -->
    <title>Reports</title>
    <desc>Created with Sketch.</desc>
    <defs></defs>
    <g id="Styleguide" stroke="none" stroke-width="1" fill="none" fill-rule="evenodd">
        <g id="ICONS" transform="translate(-81.000000, -262.000000)" fill="#B0BEC5">
            <path d="M94.1309861,272.635788 C94.1103838,272.674556 94.0638257,272.702708 94.0185655,272.702708 L86.887561,272.593963 C86.778547,272.589137 86.6812131,272.623884 86.5965327,272.684208 L84.380078,274.259883 C84.1771369,274.402249 83.9477533,274.477695 83.7169098,274.477695 C83.3418499,274.477695 82.9891768,274.284657 82.7490866,273.948448 L82.2165081,273.202194 C82.022327,272.930493 81.9405665,272.616323 81.9856645,272.317757 C82.0309248,272.017905 82.1959057,271.760681 82.4648717,271.571664 L84.2128259,270.329141 L84.7017665,270.967615 C84.7976403,271.092608 84.94283,271.158402 85.0898042,271.158402 C85.1923292,271.158402 85.2956654,271.126389 85.3837525,271.060113 C85.5977248,270.898926 85.6395784,270.596178 85.4770308,270.383996 L84.9017876,269.632595 L87.1235956,263.053689 C87.1373846,263.01299 87.1860515,262.973257 87.2298518,262.966822 C87.2378007,262.965696 87.2457496,262.965053 87.2533741,262.965053 C87.296201,262.965053 87.3380546,262.981783 87.3552503,263.005912 L94.136015,272.505004 C94.1543462,272.530421 94.1572662,272.586402 94.1309861,272.635788 L94.1309861,272.635788 Z M87.3834771,277.034809 L85.7354523,274.480108 L86.4028382,274.004751 L88.3225868,277.034809 L87.3834771,277.034809 Z M88.1498192,262.448353 C87.9188134,262.124693 87.5010889,261.951441 87.0880688,262.011926 C86.6795909,262.071607 86.3312978,262.360199 86.200546,262.74708 L83.9870113,269.302178 L81.9000107,270.785677 C81.4188569,271.123494 81.1073885,271.616707 81.0230325,272.174748 C80.9402987,272.720725 81.0820817,273.283753 81.4221014,273.759914 L81.9546799,274.506007 C82.3797045,275.101369 83.0219459,275.442886 83.7169098,275.442886 C84.1498834,275.442886 84.5731235,275.303577 84.9436412,275.04394 L86.7070066,277.777523 C86.7965538,277.916189 86.9509902,278 87.1171067,278 L89.203134,278 C89.3802816,278 89.5434781,277.904607 89.6291319,277.75082 C89.7146235,277.597193 89.7094324,277.409464 89.6151807,277.260663 L87.2700831,273.559315 L94.0034787,273.656639 L94.0201877,273.656639 C94.4225011,273.656639 94.8037254,273.43384 94.9920665,273.080259 C95.1867342,272.713968 95.162563,272.272715 94.9305839,271.947446 L88.1498192,262.448353 Z M91.7895223,265.403528 C92.9062663,265.523212 93.7164087,266.521542 93.5960391,267.627651 L93.5914968,267.665133 C93.5592144,267.929756 93.7491777,268.170249 94.0160348,268.202422 C94.0359882,268.204835 94.0557794,268.205962 94.0754084,268.205962 C94.317932,268.205962 94.5278488,268.026436 94.55786,267.781599 L94.5635379,267.732535 C94.7418211,266.096053 93.5442899,264.620758 91.8941562,264.443967 C91.6292458,264.413885 91.3868845,264.606763 91.3580087,264.871869 C91.329133,265.136975 91.5223408,265.374894 91.7895223,265.403528 Z M95.8992831,263.929971 C95.0656185,262.903007 93.8786318,262.259546 92.5568377,262.117985 C92.2922518,262.088385 92.0497282,262.28078 92.0208525,262.545886 C91.9919767,262.810831 92.1850223,263.048912 92.452366,263.077546 C93.5157386,263.191438 94.4704218,263.709103 95.1410522,264.535306 C95.8116826,265.361349 96.1177977,266.396839 96.0031059,267.449541 L95.9948326,267.519517 C95.961739,267.78398 96.1512157,268.025117 96.4177483,268.057933 C96.4381884,268.060507 96.4583041,268.061794 96.4784197,268.061794 C96.7204566,268.061794 96.9300489,267.882751 96.9608713,267.638558 L96.9706047,267.554908 C97.1133611,266.244339 96.7329478,264.956934 95.8992831,263.929971 Z" id="Reports"></path>
        </g>
    </g>
</svg>

<svg width="16" height="16" viewBox="0 0 16 16" xmlns="http://www.w3.org/2000/svg"><g id="Styleguide" fill="none" fill-rule="evenodd"><g id="ICONS" transform="translate(-81 -262)" fill="#B0BEC5"><path d="M94.131 272.636a.133.133 0 0 1-.112.067l-7.131-.109a.459.459 0 0 0-.291.09l-2.217 1.576a1.155 1.155 0 0 1-.663.218c-.375 0-.728-.193-.968-.53l-.532-.746a1.213 1.213 0 0 1-.231-.884c.045-.3.21-.557.479-.746l1.748-1.243.489.639a.488.488 0 0 0 .682.092.48.48 0 0 0 .093-.676l-.575-.751 2.222-6.58a.146.146 0 0 1 .106-.086.169.169 0 0 1 .023-.002c.043 0 .085.017.102.04l6.781 9.5c.018.025.021.081-.005.13zm-6.748 4.399l-1.648-2.555.668-.475 1.92 3.03h-.94zm.767-14.587a1.114 1.114 0 0 0-1.062-.436c-.408.06-.757.348-.887.735l-2.214 6.555-2.087 1.484a2.07 2.07 0 0 0-.877 1.389 2.165 2.165 0 0 0 .4 1.585l.532.746c.425.595 1.067.937 1.762.937.433 0 .856-.14 1.227-.4l1.763 2.735c.09.138.244.222.41.222h2.086c.177 0 .34-.095.426-.25a.48.48 0 0 0-.014-.49l-2.345-3.7 6.733.097h.017c.403 0 .784-.223.972-.577.195-.366.17-.807-.061-1.133l-6.781-9.499zm3.64 2.956a2.026 2.026 0 0 1 1.806 2.224l-.005.037a.484.484 0 0 0 .484.541c.243 0 .453-.18.483-.424l.006-.05c.178-1.636-1.02-3.111-2.67-3.288a.484.484 0 0 0-.105.96zm4.11-1.474a4.955 4.955 0 0 0-3.343-1.812.484.484 0 0 0-.104.96 3.986 3.986 0 0 1 2.688 1.457 3.92 3.92 0 0 1 .862 2.915l-.008.07a.484.484 0 0 0 .483.542.486.486 0 0 0 .483-.423l.01-.084a4.875 4.875 0 0 0-1.072-3.625z" id="Reports"/></g></g></svg>
